X:513
T:Vals # 513
T: efter fadern
M:3/4
L:1/8
K: G
Q: 160
D2 {c/}BA Bc| d2 c2 c2| D3F AB| c2B2B2| G2 GB dg| b2a2a2|
d2fd fa|1g4z2 :|2 g4d2|: d2gB dg| g2fe f2| d2fd fa| a2 gf g2|
d2gB dg| g2fe f2| dd fd fa|1g4d2 :|2 g4z2||

